packages/design-system/src/icons/ps-icons/private-advertising.svg

<?xml version="1.0" encoding="UTF-8"?>
<!-- Created with Inkscape (http://www.inkscape.org/) -->
<svg width="800" height="800" version="1.1" viewBox="0 0 800 800" xml:space="preserve" xmlns="http://www.w3.org/2000/svg"><defs><clipPath id="clipPath386"><path d="m0 600h600v-600h-600z"/></clipPath></defs><g transform="matrix(1.3333 0 0 -1.3333 0 800)"><g transform="translate(160.92 468.35)"><path d="m0 0h377.82c11.533 0 20.882-9.349 20.882-20.882v-140.15" fill="none" stroke="#4285fa" stroke-linecap="round" stroke-linejoin="round" stroke-miterlimit="10" stroke-width="25.168"/></g><g transform="translate(40.956 366.69)"><path d="m0 0v80.778c0 11.533 9.349 20.882 20.882 20.882h99.083" fill="none" stroke="#4285fa" stroke-linecap="round" stroke-linejoin="round" stroke-miterlimit="10" stroke-width="25.168"/></g><g transform="translate(322.51 131.25)"><path d="m0 0h-260.68c-11.532 0-20.881 9.349-20.881 20.882v180.92" fill="none" stroke="#4285fa" stroke-linecap="round" stroke-linejoin="round" stroke-miterlimit="10" stroke-width="25.168"/></g><g transform="translate(516.88 131.25)"><path d="m0 0h-129.03" fill="#fff" stroke="#4285fa" stroke-linecap="round" stroke-linejoin="round" stroke-miterlimit="10" stroke-width="25.168"/></g><g transform="translate(559.62 333.87)"><path d="m0 0v-181.74c0-11.532-9.349-20.882-20.882-20.882h-38.868" fill="none" stroke="#4285fa" stroke-linecap="round" stroke-linejoin="round" stroke-miterlimit="10" stroke-width="25.168"/></g><g transform="translate(368.19 131.25)"><path d="m0 0c0-7.062-5.724-12.786-12.786-12.786s-12.786 5.724-12.786 12.786 5.724 12.786 12.786 12.786 12.786-5.724 12.786-12.786" fill="#4285fa"/></g><path d="m509.84 185.5h-138.43v197.79h138.43z" fill="#3bd897"/><g fill="#bfe2f7"><path d="m341.34 356.71h-248.91v26.579h248.91z"/><path d="m341.34 299.64h-248.91v26.579h248.91z"/><path d="m341.34 242.57h-248.91v26.579h248.91z"/><path d="m341.34 185.5h-248.91v26.579h248.91z"/></g><g transform="translate(97.554 425.81)"><path d="m0 0c0-7.062-5.725-12.786-12.786-12.786-7.062 0-12.786 5.724-12.786 12.786 0 7.061 5.724 12.786 12.786 12.786 7.061 0 12.786-5.725 12.786-12.786" fill="#4285fa"/></g><g transform="translate(133.62 425.81)"><path d="m0 0c0-7.062-5.724-12.786-12.786-12.786s-12.786 5.724-12.786 12.786c0 7.061 5.724 12.786 12.786 12.786s12.786-5.725 12.786-12.786" fill="#4285fa"/></g><g transform="translate(169.68 425.81)"><path d="m0 0c0-7.062-5.725-12.786-12.786-12.786-7.062 0-12.786 5.724-12.786 12.786 0 7.061 5.724 12.786 12.786 12.786 7.061 0 12.786-5.725 12.786-12.786" fill="#4285fa"/></g><g transform="translate(476.22 331.99)"><path d="m0 0 18.843-29.203c3.06-4.742 1.696-11.066-3.046-14.126l-80.166-51.727s-17.49-13.986-28.676 3.35c-2.934 4.548 0.249 9.777 3.328 13.421 3.746 4.432 7.717 8.614 11.308 13.166 12.603 15.974 23.284 33.161 34.344 50.201 3.357 5.185 5.94 0.381 8.602-2.444 4.664-4.952 13.18-5.913 19.224-3.138 3.935 1.807 6.607 5.407 7.114 9.685 0.45 3.796-1.159 8.907 2.46 11.605 2.142 1.596 5.114 1.614 6.665-0.79z" fill="none" stroke="#269667" stroke-linecap="round" stroke-linejoin="round" stroke-miterlimit="10" stroke-width="5"/></g><g transform="translate(494.76 303.25)"><path d="m0 0-89.981-58.06c-7.005-4.52-15.976-3.422-20.834 3.352-0.077 0.107-0.279 0.428-0.494 0.759" fill="none" stroke="#269667" stroke-linecap="round" stroke-linejoin="round" stroke-miterlimit="10" stroke-width="5"/></g><g transform="translate(447.61 292.3)"><path d="m0 0 38.283 24.702" fill="none" stroke="#269667" stroke-linecap="round" stroke-linejoin="round" stroke-miterlimit="10" stroke-width="5"/></g><g transform="translate(440.57 287.87)"><path d="m0 0c2.403-3.723 1.332-8.69-2.392-11.092-3.723-2.403-8.689-1.332-11.092 2.392-2.402 3.723-1.332 8.689 2.392 11.092 3.723 2.402 8.689 1.331 11.092-2.392" fill="#269667"/></g><g transform="translate(383.12 368.89)"><path d="m0 0h114.68" fill="none" stroke="#269667" stroke-linecap="round" stroke-linejoin="round" stroke-miterlimit="10" stroke-width="5"/></g><g transform="translate(512.54 157.57)"><path d="m0 0-12.613 27.14-14.44-20.181v62.631l48.713-38.274h-24.705l12.527-26.88z" fill="#dc9af8"/></g></g></svg>

<?xml version="1.0" encoding="UTF-8" standalone="no"?>
<!-- Created with Inkscape (http://www.inkscape.org/) -->

<svg
   version="1.1"
   id="svg382"
   xml:space="preserve"
   width="725.10773"
   height="483.28931"
   viewBox="0 0 725.10773 483.28931"
   sodipodi:docname="Private Advertising.svg"
   inkscape:version="1.1.2 (0a00cf5339, 2022-02-04)"
   xmlns:inkscape="http://www.inkscape.org/namespaces/inkscape"
   xmlns:sodipodi="http://sodipodi.sourceforge.net/DTD/sodipodi-0.dtd"
   xmlns="http://www.w3.org/2000/svg"
   xmlns:svg="http://www.w3.org/2000/svg"><defs
     id="defs386"><clipPath
       clipPathUnits="userSpaceOnUse"
       id="clipPath396"><path
         d="M 0,600 H 600 V 0 H 0 Z"
         id="path394" /></clipPath></defs><sodipodi:namedview
     id="namedview384"
     pagecolor="#ffffff"
     bordercolor="#666666"
     borderopacity="1.0"
     inkscape:pageshadow="2"
     inkscape:pageopacity="0.0"
     inkscape:pagecheckerboard="0"
     showgrid="false"
     inkscape:zoom="1.09125"
     inkscape:cx="362.42841"
     inkscape:cy="241.46621"
     inkscape:window-width="2560"
     inkscape:window-height="1371"
     inkscape:window-x="0"
     inkscape:window-y="32"
     inkscape:window-maximized="1"
     inkscape:current-layer="g388" /><g
     id="g388"
     inkscape:groupmode="layer"
     inkscape:label="Private Advertising"
     transform="matrix(1.3333333,0,0,-1.3333333,-37.8296,641.24385)"><g
       id="g390"><g
         id="g392"
         clip-path="url(#clipPath396)"><g
           id="g398"
           transform="translate(160.9216,468.3487)"><path
             d="m 0,0 h 377.815 c 11.533,0 20.882,-9.349 20.882,-20.882 v -140.152"
             style="fill:none;stroke:#4285fa;stroke-width:25.168;stroke-linecap:round;stroke-linejoin:round;stroke-miterlimit:10;stroke-dasharray:none;stroke-opacity:1"
             id="path400" /></g><g
           id="g402"
           transform="translate(40.9562,366.6889)"><path
             d="m 0,0 v 80.778 c 0,11.533 9.349,20.882 20.882,20.882 h 99.083"
             style="fill:none;stroke:#4285fa;stroke-width:25.168;stroke-linecap:round;stroke-linejoin:round;stroke-miterlimit:10;stroke-dasharray:none;stroke-opacity:1"
             id="path404" /></g><g
           id="g406"
           transform="translate(322.5136,131.2519)"><path
             d="m 0,0 h -260.676 c -11.532,0 -20.881,9.349 -20.881,20.882 v 180.925"
             style="fill:none;stroke:#4285fa;stroke-width:25.168;stroke-linecap:round;stroke-linejoin:round;stroke-miterlimit:10;stroke-dasharray:none;stroke-opacity:1"
             id="path408" /></g><g
           id="g410"
           transform="translate(516.8776,131.2519)"><path
             d="M 0,0 H -129.026"
             style="fill:#ffffff;fill-opacity:1;fill-rule:nonzero;stroke:#4285fa;stroke-width:25.168;stroke-linecap:round;stroke-linejoin:round;stroke-miterlimit:10;stroke-dasharray:none;stroke-opacity:1"
             id="path412" /></g><g
           id="g414"
           transform="translate(559.619,333.8745)"><path
             d="m 0,0 v -181.741 c 0,-11.532 -9.349,-20.882 -20.882,-20.882 H -59.75"
             style="fill:none;stroke:#4285fa;stroke-width:25.168;stroke-linecap:round;stroke-linejoin:round;stroke-miterlimit:10;stroke-dasharray:none;stroke-opacity:1"
             id="path416" /></g><g
           id="g418"
           transform="translate(368.1928,131.2519)"><path
             d="m 0,0 c 0,-7.062 -5.724,-12.786 -12.786,-12.786 -7.062,0 -12.786,5.724 -12.786,12.786 0,7.062 5.724,12.786 12.786,12.786 C -5.724,12.786 0,7.062 0,0"
             style="fill:#4285fa;fill-opacity:1;fill-rule:nonzero;stroke:none"
             id="path420" /></g><path
           d="M 509.841,185.499 H 371.411 V 383.29 h 138.43 z"
           style="fill:#3bd897;fill-opacity:1;fill-rule:nonzero;stroke:none"
           id="path422" /><path
           d="M 341.342,356.711 H 92.428 v 26.579 h 248.914 z"
           style="fill:#bfe2f7;fill-opacity:1;fill-rule:nonzero;stroke:none"
           id="path424" /><path
           d="M 341.342,299.641 H 92.428 v 26.579 h 248.914 z"
           style="fill:#bfe2f7;fill-opacity:1;fill-rule:nonzero;stroke:none"
           id="path426" /><path
           d="M 341.342,242.57 H 92.428 v 26.579 h 248.914 z"
           style="fill:#bfe2f7;fill-opacity:1;fill-rule:nonzero;stroke:none"
           id="path428" /><path
           d="M 341.342,185.499 H 92.428 v 26.579 h 248.914 z"
           style="fill:#bfe2f7;fill-opacity:1;fill-rule:nonzero;stroke:none"
           id="path430" /><g
           id="g432"
           transform="translate(97.5541,425.8074)"><path
             d="m 0,0 c 0,-7.062 -5.725,-12.786 -12.786,-12.786 -7.062,0 -12.786,5.724 -12.786,12.786 0,7.061 5.724,12.786 12.786,12.786 C -5.725,12.786 0,7.061 0,0"
             style="fill:#4285fa;fill-opacity:1;fill-rule:nonzero;stroke:none"
             id="path434" /></g><g
           id="g436"
           transform="translate(133.6164,425.8074)"><path
             d="m 0,0 c 0,-7.062 -5.724,-12.786 -12.786,-12.786 -7.062,0 -12.786,5.724 -12.786,12.786 0,7.061 5.724,12.786 12.786,12.786 C -5.724,12.786 0,7.061 0,0"
             style="fill:#4285fa;fill-opacity:1;fill-rule:nonzero;stroke:none"
             id="path438" /></g><g
           id="g440"
           transform="translate(169.6788,425.8074)"><path
             d="m 0,0 c 0,-7.062 -5.725,-12.786 -12.786,-12.786 -7.062,0 -12.786,5.724 -12.786,12.786 0,7.061 5.724,12.786 12.786,12.786 C -5.725,12.786 0,7.061 0,0"
             style="fill:#4285fa;fill-opacity:1;fill-rule:nonzero;stroke:none"
             id="path442" /></g><g
           id="g444"
           transform="translate(476.2194,331.988)"><path
             d="m 0,0 18.843,-29.203 c 3.06,-4.742 1.696,-11.066 -3.046,-14.126 l -80.166,-51.727 c 0,0 -17.49,-13.986 -28.676,3.35 -2.934,4.548 0.249,9.777 3.328,13.421 3.746,4.432 7.717,8.614 11.308,13.166 12.603,15.974 23.284,33.161 34.344,50.201 3.357,5.185 5.94,0.381 8.602,-2.444 4.664,-4.952 13.18,-5.913 19.224,-3.138 3.935,1.807 6.607,5.407 7.114,9.685 0.45,3.796 -1.159,8.907 2.46,11.605 C -4.523,2.386 -1.551,2.404 0,0 Z"
             style="fill:none;stroke:#269667;stroke-width:5;stroke-linecap:round;stroke-linejoin:round;stroke-miterlimit:10;stroke-dasharray:none;stroke-opacity:1"
             id="path446" /></g><g
           id="g448"
           transform="translate(494.7605,303.2532)"><path
             d="m 0,0 -89.981,-58.06 c -7.005,-4.52 -15.976,-3.422 -20.834,3.352 -0.077,0.107 -0.279,0.428 -0.494,0.759"
             style="fill:none;stroke:#269667;stroke-width:5;stroke-linecap:round;stroke-linejoin:round;stroke-miterlimit:10;stroke-dasharray:none;stroke-opacity:1"
             id="path450" /></g><g
           id="g452"
           transform="translate(447.6066,292.2991)"><path
             d="M 0,0 38.283,24.702"
             style="fill:none;stroke:#269667;stroke-width:5;stroke-linecap:round;stroke-linejoin:round;stroke-miterlimit:10;stroke-dasharray:none;stroke-opacity:1"
             id="path454" /></g><g
           id="g456"
           transform="translate(440.5747,287.8749)"><path
             d="m 0,0 c 2.403,-3.723 1.332,-8.69 -2.392,-11.092 -3.723,-2.403 -8.689,-1.332 -11.092,2.392 -2.402,3.723 -1.332,8.689 2.392,11.092 C -7.369,4.794 -2.403,3.723 0,0"
             style="fill:#269667;fill-opacity:1;fill-rule:nonzero;stroke:none"
             id="path458" /></g><g
           id="g460"
           transform="translate(383.1212,368.8912)"><path
             d="M 0,0 H 114.684"
             style="fill:none;stroke:#269667;stroke-width:5;stroke-linecap:round;stroke-linejoin:round;stroke-miterlimit:10;stroke-dasharray:none;stroke-opacity:1"
             id="path462" /></g><g
           id="g464"
           transform="translate(512.5378,157.566)"><path
             d="M 0,0 -12.613,27.14 -27.053,6.959 V 69.59 L 21.66,31.316 H -3.045 L 9.482,4.436 Z"
             style="fill:#dc9af8;fill-opacity:1;fill-rule:nonzero;stroke:none"
             id="path466" /></g></g></g></g></svg>
